img/common/icon-tel.svg

<svg fill="none" height="17" viewBox="0 0 16 17" width="16" xmlns="http://www.w3.org/2000/svg"><path d="m5.15312 1.26945c-.24062-.581245-.875-.89062-1.48124-.724995l-2.750005.749995c-.54375.15-.921875.64375-.921875 1.20625 0 7.7313 6.26875 14 14 14 .5625 0 1.0563-.3781 1.2063-.9219l.75-2.75c.1656-.6062-.1438-1.2406-.7251-1.4812l-3-1.25c-.5093-.21252-1.0999-.0656-1.4468.3625l-1.26252 1.5406c-2.2-1.0406-3.98125-2.82187-5.02188-5.02187l1.54063-1.25938c.42812-.35.57499-.9375.36249-1.44687l-1.25-3z" fill="#ff8b71"/></svg>

<svg width="16" height="17" viewBox="0 0 16 17" fill="none" xmlns="http://www.w3.org/2000/svg">
<path d="M5.15312 1.26945C4.9125 0.688205 4.27812 0.37883 3.67188 0.544455L0.921875 1.29445C0.378125 1.44445 0 1.9382 0 2.5007C0 10.232 6.26875 16.5007 14 16.5007C14.5625 16.5007 15.0563 16.1226 15.2063 15.5788L15.9563 12.8288C16.1219 12.2226 15.8125 11.5882 15.2312 11.3476L12.2312 10.0976C11.7219 9.88508 11.1313 10.032 10.7844 10.4601L9.52188 12.0007C7.32188 10.9601 5.54063 9.17883 4.5 6.97883L6.04063 5.71945C6.46875 5.36945 6.61562 4.78195 6.40312 4.27258L5.15312 1.27258V1.26945Z" fill="#FF8B71"/>
</svg>
